src/img/icons/cao_feliz_2.svg

<svg width="30" height="30" viewBox="0 0 30 30" fill="none" xmlns="http://www.w3.org/2000/svg">
<path fill-rule="evenodd" clip-rule="evenodd" d="M17.2921 18.2658C17.1072 18.6383 16.6541 18.7908 16.2809 18.6063C15.9078 18.4218 15.755 17.9699 15.9398 17.5975C16.3052 16.8614 17.1019 16.4025 17.9374 16.3569C18.7776 16.3111 19.6327 16.6728 20.0951 17.4959C20.2987 17.8584 20.1691 18.3175 19.8058 18.5207C19.4427 18.7238 18.9824 18.5946 18.7788 18.2322C18.6186 17.9471 18.3107 17.8444 18.0198 17.8604C17.7238 17.8765 17.4215 18.0052 17.2921 18.2658Z" fill="#3D3D3D"/>
<path fill-rule="evenodd" clip-rule="evenodd" d="M11.0341 18.3338C10.8492 18.7061 10.3963 18.8586 10.0231 18.6742C9.64998 18.4897 9.49715 18.0377 9.68202 17.6653C10.0474 16.9294 10.8441 16.4704 11.6796 16.4247C12.5198 16.379 13.3749 16.7407 13.8373 17.5638C14.0409 17.9262 13.9113 18.3854 13.548 18.5886C13.1847 18.7918 12.7246 18.6624 12.521 18.3001C12.3608 18.0149 12.0529 17.9125 11.7618 17.9283C11.4659 17.9444 11.1636 18.0731 11.0341 18.3338Z" fill="#3D3D3D"/>
<path fill-rule="evenodd" clip-rule="evenodd" d="M15.0436 21.8773C15.1704 21.8788 15.3166 21.9589 15.3961 22.0126C16.1113 22.4967 16.9664 22.5658 17.9263 22.1959C18.7846 21.8652 18.3156 20.6228 17.8131 20.8377C16.9148 21.2218 16.516 20.8825 15.5127 20.3104C15.3654 20.2265 15.147 20.2185 15.0559 20.2183C15.0547 20.2183 15.0535 20.2183 15.0522 20.2183C14.9612 20.2185 14.7426 20.2265 14.5953 20.3104C13.5922 20.8825 13.2137 21.1704 12.2951 20.8377C11.6581 20.607 11.2988 21.8652 12.1573 22.1959C13.117 22.5658 13.9723 22.4967 14.6875 22.0126C14.7668 21.9589 14.913 21.8788 15.0399 21.8773C15.0411 21.8773 15.0423 21.8773 15.0436 21.8773Z" fill="#3D3D3D"/>
<path fill-rule="evenodd" clip-rule="evenodd" d="M20.1277 25.4037C19.5379 25.1593 19.258 24.4831 19.5029 23.8945C19.7478 23.3059 20.4256 23.0266 21.0155 23.271C21.8619 23.6219 22.5296 23.6952 23.0313 23.4334C23.8246 23.0196 24.0713 21.9473 24.0669 20.7094C24.0531 16.8366 20.9985 11.1844 15.0654 11.1844C8.36944 11.1844 5.48114 16.8096 5.70025 20.6311C5.77053 21.8569 6.10952 22.9107 6.93246 23.2836C7.44935 23.5178 8.10719 23.4173 8.91243 23.0266C9.4868 22.7479 10.1798 22.987 10.4591 23.5601C10.7384 24.1332 10.4987 24.8247 9.92437 25.1034C8.32784 25.878 7.00029 25.8507 5.97529 25.3862C4.48509 24.7107 3.51694 22.9829 3.38969 20.763C3.11516 15.9761 6.6777 8.875 15.0654 8.875C22.4754 8.875 26.3639 15.8644 26.3812 20.7011C26.3894 22.9495 25.5443 24.7283 24.1037 25.4798C23.117 25.9946 21.7921 26.0935 20.1277 25.4037Z" fill="#3D3D3D"/>
<path fill-rule="evenodd" clip-rule="evenodd" d="M14.6509 2.05561C15.5005 1.27392 16.7353 1.38826 17.4038 1.95802C18.1591 2.60178 18.2683 3.88646 17.516 5.1732C17.1296 5.87394 16.26 6.58795 15.4042 7.12871C14.9442 7.41952 14.3575 7.41952 13.8975 7.12871C13.0418 6.58808 12.1725 5.8742 11.7865 5.17488C11.0334 3.88698 11.1423 2.60191 11.8979 1.95802C12.5664 1.38826 13.801 1.27392 14.6509 2.05561ZM14.2133 3.11457C13.7973 2.40546 12.9724 2.37271 12.5564 2.72734C12.3614 2.8935 12.2797 3.14912 12.2797 3.43993C12.2797 3.81479 12.4133 4.2407 12.6647 4.66905C12.6671 4.6733 12.6696 4.67769 12.6721 4.68207C12.9893 5.2615 13.7321 5.82689 14.44 6.27406C14.5687 6.3554 14.7328 6.3554 14.8614 6.27406L14.8616 6.27393C15.5695 5.82676 16.3122 5.2615 16.6295 4.68207C16.632 4.67769 16.6344 4.6733 16.637 4.66905C16.8883 4.2407 17.022 3.81479 17.022 3.43993C17.022 3.14912 16.9402 2.8935 16.7453 2.72734C16.3292 2.37271 15.5044 2.40546 15.0883 3.11457C14.9973 3.26964 14.8308 3.36491 14.6509 3.36491C14.4708 3.36491 14.3042 3.26964 14.2133 3.11457Z" fill="#3D3D3D"/>
</svg>

<svg xmlns="http://www.w3.org/2000/svg" width="30" height="30" fill="none" viewBox="0 0 30 30"><path fill="#3d3d3d" fill-rule="evenodd" d="M17.292 18.266a.756.756 0 0 1-1.011.34.75.75 0 0 1-.341-1.009c.365-.736 1.162-1.195 1.997-1.24.84-.046 1.696.316 2.158 1.139a.75.75 0 0 1-.29 1.025.756.756 0 0 1-1.026-.289c-.16-.285-.468-.388-.76-.372-.295.017-.597.145-.727.406" clip-rule="evenodd"/><path fill="#3d3d3d" fill-rule="evenodd" d="M11.034 18.334a.756.756 0 0 1-1.01.34.753.753 0 0 1-.342-1.009c.365-.736 1.162-1.195 1.998-1.24.84-.046 1.695.316 2.157 1.139a.75.75 0 0 1-.289 1.025.756.756 0 0 1-1.027-.289c-.16-.285-.468-.387-.76-.372-.295.016-.597.145-.727.406" clip-rule="evenodd"/><path fill="#3d3d3d" fill-rule="evenodd" d="M15.044 21.877c.126.002.273.082.352.136.715.484 1.57.553 2.53.183.859-.33.39-1.573-.113-1.358-.898.384-1.297.044-2.3-.528-.148-.083-.366-.091-.457-.092h-.004c-.09 0-.31.009-.457.092-1.003.573-1.381.86-2.3.528-.637-.231-.996 1.027-.138 1.358.96.37 1.815.3 2.53-.183.08-.054.226-.134.353-.136z" clip-rule="evenodd"/><path fill="#3d3d3d" fill-rule="evenodd" d="M20.128 25.404a1.154 1.154 0 1 1 .887-2.133c.847.35 1.515.424 2.016.162.794-.413 1.04-1.486 1.036-2.724-.014-3.872-3.068-9.525-9.002-9.525-6.696 0-9.584 5.626-9.365 9.447.07 1.226.41 2.28 1.232 2.653.517.234 1.175.133 1.98-.257a1.154 1.154 0 1 1 1.012 2.077c-1.596.774-2.924.747-3.949.282-1.49-.675-2.458-2.403-2.585-4.623-.275-4.787 3.288-11.888 11.675-11.888 7.41 0 11.299 6.99 11.316 11.826.008 2.249-.837 4.027-2.277 4.779-.987.515-2.312.613-3.976-.076" clip-rule="evenodd"/><path fill="#3d3d3d" fill-rule="evenodd" d="M14.65 2.056c.85-.782 2.085-.668 2.754-.098.755.644.864 1.928.112 3.215-.386.7-1.256 1.415-2.112 1.956a1.41 1.41 0 0 1-1.506 0c-.856-.54-1.726-1.255-2.111-1.954-.754-1.288-.645-2.573.11-3.217.67-.57 1.904-.684 2.754.098m-.437 1.059c-.416-.71-1.24-.742-1.657-.388-.195.167-.276.422-.276.713 0 .375.133.8.385 1.23l.007.012c.317.58 1.06 1.145 1.768 1.592a.39.39 0 0 0 .421 0c.708-.447 1.451-1.013 1.768-1.592l.008-.013c.251-.428.385-.854.385-1.23 0-.29-.082-.546-.277-.712-.416-.354-1.24-.322-1.657.388a.507.507 0 0 1-.875 0" clip-rule="evenodd"/></svg>
